svg/emoji_u1fa74.svg

<?xml version="1.0" encoding="utf-8"?>
<!-- Generator: Adobe Illustrator 24.0.3, SVG Export Plug-In . SVG Version: 6.00 Build 0)  -->
<svg version="1.1" id="Layer_5" xmlns="http://www.w3.org/2000/svg" xmlns:xlink="http://www.w3.org/1999/xlink" x="0" y="0"
	 viewBox="0 0 128 128" style="enable-background:new 0 0 128 128;" xml:space="preserve">
<linearGradient id="SVGID_1_" gradientUnits="userSpaceOnUse" x1="62.0645" y1="20.9372" x2="62.0645" y2="126.1978">
	<stop  offset="0" style="stop-color:#B2DFDB"/>
	<stop  offset="1" style="stop-color:#80CBC4"/>
</linearGradient>
<path style="fill:url(#SVGID_1_);" d="M94.17,48.8c0-18.11-8.13-40.74-31.87-44.3C44.88,1.89,26.8,8.97,30.43,37.3
	c2.37,18.57,9.39,18.98,7.3,51.16C36.05,114.3,47.64,124,62.3,124s24.18-6.76,26.54-27.31C91.2,76.14,94.17,60.25,94.17,48.8z"/>
<linearGradient id="SVGID_2_" gradientUnits="userSpaceOnUse" x1="64.8372" y1="90.7185" x2="64.8372" y2="49.5457">
	<stop  offset="0.3341" style="stop-color:#0277BD"/>
	<stop  offset="1" style="stop-color:#01579B"/>
</linearGradient>
<path style="fill:url(#SVGID_2_);" d="M87.56,46.58c-4.88-13.15-24.15-20.9-30.54-22.47l-3.85-5.56c-1.3-1.99-2.8-2.61-4.3-1.69
	c-1.72,1.05-0.78,2.49-0.11,4.39l1.91,6c-3.72,4.64-12.08,15.03-10.35,33.76C41.8,76.96,48,86.01,48.22,86.47
	c0.62,1.33,3.09,2.59,4.84,1.78s1.99-3.02,1.14-4.85c-0.03-0.07-3.14-9.39-5.24-15.71c-1.28-3.84-1.25-8,0.1-11.82
	c2.15-6.06,4.88-15.13,9.39-20.12c0,0,10.18,6.37,17.12,12.8c4.3,3.98,6.76,9.54,6.05,15.36c-0.72,5.88-1.76,13.81-2.57,17.82
	c-0.45,2.24-0.7,4.52,1.56,5.39c2.26,0.87,3.56-1.04,4.41-3.24C85.37,82.95,93.17,61.69,87.56,46.58z"/>
<radialGradient id="SVGID_3_" cx="59.012" cy="40.8238" r="31.0098" gradientTransform="matrix(0.9795 -0.2016 0.1373 0.6672 -4.3942 25.4841)" gradientUnits="userSpaceOnUse">
	<stop  offset="0" style="stop-color:#40BDF6"/>
	<stop  offset="1" style="stop-color:#039BE5"/>
</radialGradient>
<path style="fill:url(#SVGID_3_);" d="M87.56,46.58c-4.88-13.15-24.15-20.9-30.54-22.47l-3.85-5.56c-1.3-1.99-2.8-2.61-4.3-1.69
	c-1.72,1.05-0.78,2.49-0.11,4.39l1.91,6c-3.72,4.64-12.08,15.03-10.35,33.76c0.55,5.95,3.06,14.88,3.06,14.88
	c-0.01-5.98-0.06-7.79,2.12-15.27c2.17-7.47,5.21-18.99,12.38-26.94c0,0,13.94,7.91,22.72,18.01c8.83,10.16,7.67,20.25,7.67,20.25
	C90,63.48,89.95,53.01,87.56,46.58z"/>
</svg>

<?xml version="1.0" encoding="UTF-8" standalone="no"?>
<!DOCTYPE svg PUBLIC "-//W3C//DTD SVG 1.1//EN" "http://www.w3.org/Graphics/SVG/1.1/DTD/svg11.dtd">
<svg width="100%" height="100%" viewBox="0 0 128 128" version="1.1" xmlns="http://www.w3.org/2000/svg" xmlns:xlink="http://www.w3.org/1999/xlink" xml:space="preserve" xmlns:serif="http://www.serif.com/" style="fill-rule:evenodd;clip-rule:evenodd;stroke-linejoin:round;stroke-miterlimit:2;">
    <path d="M94.17,48.8C94.17,30.69 86.04,8.06 62.3,4.5C44.88,1.89 26.8,8.97 30.43,37.3C32.8,55.87 39.82,56.28 37.73,88.46C36.05,114.3 47.64,124 62.3,124C76.96,124 86.48,117.24 88.84,96.69C91.2,76.14 94.17,60.25 94.17,48.8Z" style="fill:rgb(93,221,209);fill-rule:nonzero;"/>
    <path d="M87.56,46.58C82.68,33.43 63.41,25.68 57.02,24.11L53.17,18.55C51.87,16.56 50.37,15.94 48.87,16.86C47.15,17.91 48.09,19.35 48.76,21.25L50.67,27.25C46.95,31.89 38.59,42.28 40.32,61.01C41.8,76.96 48,86.01 48.22,86.47C48.84,87.8 51.31,89.06 53.06,88.25C54.81,87.44 55.05,85.23 54.2,83.4C54.17,83.33 51.06,74.01 48.96,67.69C47.68,63.85 47.71,59.69 49.06,55.87C51.21,49.81 53.94,40.74 58.45,35.75C58.45,35.75 68.63,42.12 75.57,48.55C79.87,52.53 82.33,58.09 81.62,63.91C80.9,69.79 79.86,77.72 79.05,81.73C78.6,83.97 78.35,86.25 80.61,87.12C82.87,87.99 84.17,86.08 85.02,83.88C85.37,82.95 93.17,61.69 87.56,46.58Z" style="fill:rgb(28,97,146);fill-rule:nonzero;"/>
    <path d="M87.56,46.58C82.68,33.43 63.41,25.68 57.02,24.11L53.17,18.55C51.87,16.56 50.37,15.94 48.87,16.86C47.15,17.91 48.09,19.35 48.76,21.25L50.67,27.25C46.95,31.89 38.59,42.28 40.32,61.01C40.87,66.96 43.38,75.89 43.38,75.89C43.37,69.91 43.32,68.1 45.5,60.62C47.67,53.15 50.71,41.63 57.88,33.68C57.88,33.68 71.82,41.59 80.6,51.69C89.43,61.85 88.27,71.94 88.27,71.94C90,63.48 89.95,53.01 87.56,46.58Z" style="fill:rgb(66,173,231);fill-rule:nonzero;"/>
</svg>
